svgs/ella.svg

<svg xmlns="http://www.w3.org/2000/svg" viewBox="0 0 192 192"><path fill="#00000000" stroke="#000" stroke-linecap="round" stroke-width="12" d="M48 78v36c0 26.51 21.49 48 48 48h0c26.51 0 48-21.49 48-48V78"/><path fill="#00000000" stroke="#000" stroke-width="12" d="M48 120h-3.5C32.07 120 22 109.93 22 97.5 22 60.22 52.22 30 89.5 30h13c37.28 0 67.5 30.22 67.5 67.5 0 12.43-10.07 22.5-22.5 22.5H145"/><path fill="#00000000" stroke="#000" stroke-linecap="round" stroke-linejoin="round" stroke-width="12" d="m96 138 9-14H87l9 14Zm0 0v22"/><path d="M68 96a8.002 8.002 0 0 1 8-8 8.002 8.002 0 0 1 8 8 8.002 8.002 0 0 1-8 8 8.002 8.002 0 0 1-8-8M108 96a8.002 8.002 0 0 1 8-8 8.002 8.002 0 0 1 8 8 8.002 8.002 0 0 1-8 8 8.002 8.002 0 0 1-8-8"/></svg>

<svg
    xmlns="http://www.w3.org/2000/svg"
    viewBox="0 0 192 192"
    id="vector">
    <path
        id="path"
        d="M 48 78 L 48 114 C 48 140.51 69.49 162 96 162 L 96 162 C 122.51 162 144 140.51 144 114 L 144 78"
        fill="#00000000"
        stroke="#000000"
        stroke-width="12"
        stroke-linecap="round"/>
    <path
        id="path_1"
        d="M 48 120 L 44.5 120 C 32.07 120 22 109.93 22 97.5 L 22 97.5 C 22 60.22 52.22 30 89.5 30 L 102.5 30 C 139.78 30 170 60.22 170 97.5 L 170 97.5 C 170 109.93 159.93 120 147.5 120 L 145 120"
        fill="#00000000"
        stroke="#000000"
        stroke-width="12"/>
    <path
        id="path_2"
        d="M 96 138 L 105 124 L 87 124 L 96 138 Z M 96 138 L 96 160"
        fill="#00000000"
        stroke="#000000"
        stroke-width="12"
        stroke-linecap="round"
        stroke-linejoin="round"/>
    <path
        id="path_3"
        d="M 76 96 M 68 96 C 68 93.879 68.843 91.843 70.343 90.343 C 71.843 88.843 73.879 88 76 88 C 78.121 88 80.157 88.843 81.657 90.343 C 83.157 91.843 84 93.879 84 96 C 84 98.121 83.157 100.157 81.657 101.657 C 80.157 103.157 78.121 104 76 104 C 73.879 104 71.843 103.157 70.343 101.657 C 68.843 100.157 68 98.121 68 96"
        fill="#000000"/>
    <path
        id="path_4"
        d="M 116 96 M 108 96 C 108 93.879 108.843 91.843 110.343 90.343 C 111.843 88.843 113.879 88 116 88 C 118.121 88 120.157 88.843 121.657 90.343 C 123.157 91.843 124 93.879 124 96 C 124 98.121 123.157 100.157 121.657 101.657 C 120.157 103.157 118.121 104 116 104 C 113.879 104 111.843 103.157 110.343 101.657 C 108.843 100.157 108 98.121 108 96"
        fill="#000000"/>
</svg>
